X:1
T:Rond Loudia
L:1/8
M:4/4
I:linebreak $
K:D
V:1 treble 
V:1
 daag f2 da | agag f2 d2 | daag f2 da | agag f2 d2 | ffed cd e2 | efge f2 d2 |$ (3def ed cded | %7
 efgf e2 d2 | %8
